src/apps/symbolic/budgie-hotcorners-symbolic.svg

<svg width="16" height="16" version="1.1" xmlns="http://www.w3.org/2000/svg">
 <path d="m3.5 0a3.5 3.5 0 0 0-3.5 3.5 3.5 3.5 0 0 0 3.5 3.5 3.5 3.5 0 0 0 3.5-3.5 3.5 3.5 0 0 0-3.5-3.5zm0 1a2.5 2.5 0 0 1 2.5 2.5 2.5 2.5 0 0 1-2.5 2.5 2.5 2.5 0 0 1-2.5-2.5 2.5 2.5 0 0 1 2.5-2.5z" fill="#363636" stop-color="#000000" stroke-width="0"/>
 <path d="m12.5 0a3.5 3.5 0 0 0-3.5 3.5 3.5 3.5 0 0 0 3.5 3.5 3.5 3.5 0 0 0 3.5-3.5 3.5 3.5 0 0 0-3.5-3.5zm0 1a2.5 2.5 0 0 1 2.5 2.5 2.5 2.5 0 0 1-2.5 2.5 2.5 2.5 0 0 1-2.5-2.5 2.5 2.5 0 0 1 2.5-2.5z" fill="#363636" stop-color="#000000" stroke-width="0"/>
 <path d="m3.5 9a3.5 3.5 0 0 0-3.5 3.5 3.5 3.5 0 0 0 3.5 3.5 3.5 3.5 0 0 0 3.5-3.5 3.5 3.5 0 0 0-3.5-3.5zm0 1a2.5 2.5 0 0 1 2.5 2.5 2.5 2.5 0 0 1-2.5 2.5 2.5 2.5 0 0 1-2.5-2.5 2.5 2.5 0 0 1 2.5-2.5z" fill="#363636" stop-color="#000000" stroke-width="0"/>
 <path d="m12.5 9a3.5 3.5 0 0 0-3.5 3.5 3.5 3.5 0 0 0 3.5 3.5 3.5 3.5 0 0 0 3.5-3.5 3.5 3.5 0 0 0-3.5-3.5zm0 1a2.5 2.5 0 0 1 2.5 2.5 2.5 2.5 0 0 1-2.5 2.5 2.5 2.5 0 0 1-2.5-2.5 2.5 2.5 0 0 1 2.5-2.5z" fill="#363636" stop-color="#000000" stroke-width="0"/>
 <rect x="6" y="3" width="4" height="1" fill="#363636" stop-color="#000000" stroke-width="0"/>
 <rect x="3" y="6" width="1" height="4" fill="#363636" stop-color="#000000" stroke-width="0"/>
 <rect x="12" y="6" width="1" height="4" fill="#363636" stop-color="#000000" stroke-width="0"/>
 <rect x="6" y="12" width="4" height="1" fill="#363636" stop-color="#000000" stroke-width="0"/>
 <circle cx="3.5" cy="3.5" r="1.5" fill="#363636" opacity=".3" stop-color="#000000" stroke-width="0"/>
 <circle cx="12.5" cy="3.5" r="1.5" fill="#363636" opacity=".3" stop-color="#000000" stroke-width="0"/>
 <circle cx="3.5" cy="12.5" r="1.5" fill="#363636" opacity=".3" stop-color="#000000" stroke-width="0"/>
 <circle cx="12.5" cy="12.5" r="1.5" fill="#363636" opacity=".3" stop-color="#000000" stroke-width="0"/>
</svg>

<svg xmlns="http://www.w3.org/2000/svg" width="16" height="16">
    <path fill="#050505" fill-opacity=".7" d="M3.5 0A3.5 3.5 0 0 0 0 3.5 3.5 3.5 0 0 0 3.5 7 3.5 3.5 0 0 0 7 3.5 3.5 3.5 0 0 0 3.5 0zm0 1A2.5 2.5 0 0 1 6 3.5 2.5 2.5 0 0 1 3.5 6 2.5 2.5 0 0 1 1 3.5 2.5 2.5 0 0 1 3.5 1zM12.5 0A3.5 3.5 0 0 0 9 3.5 3.5 3.5 0 0 0 12.5 7 3.5 3.5 0 0 0 16 3.5 3.5 3.5 0 0 0 12.5 0zm0 1A2.5 2.5 0 0 1 15 3.5 2.5 2.5 0 0 1 12.5 6 2.5 2.5 0 0 1 10 3.5 2.5 2.5 0 0 1 12.5 1zM3.5 9A3.5 3.5 0 0 0 0 12.5 3.5 3.5 0 0 0 3.5 16 3.5 3.5 0 0 0 7 12.5 3.5 3.5 0 0 0 3.5 9zm0 1A2.5 2.5 0 0 1 6 12.5 2.5 2.5 0 0 1 3.5 15 2.5 2.5 0 0 1 1 12.5 2.5 2.5 0 0 1 3.5 10zM12.5 9A3.5 3.5 0 0 0 9 12.5a3.5 3.5 0 0 0 3.5 3.5 3.5 3.5 0 0 0 3.5-3.5A3.5 3.5 0 0 0 12.5 9zm0 1a2.5 2.5 0 0 1 2.5 2.5 2.5 2.5 0 0 1-2.5 2.5 2.5 2.5 0 0 1-2.5-2.5 2.5 2.5 0 0 1 2.5-2.5z"/>
    <path fill="#050505" fill-opacity=".7" d="M6 3h4v1H6zM3 6h1v4H3zM12 6h1v4h-1zM6 12h4v1H6z"/>
    <circle cx="3.5" cy="3.5" r="1.5" fill="#050505" opacity=".3"/>
    <circle cx="12.5" cy="3.5" r="1.5" fill="#050505" opacity=".3"/>
    <circle cx="3.5" cy="12.5" r="1.5" fill="#050505" opacity=".3"/>
    <circle cx="12.5" cy="12.5" r="1.5" fill="#050505" opacity=".3"/>
</svg>
